build/documents/DocExportOutline.svg

<svg xmlns="http://www.w3.org/2000/svg" fill="none" viewBox="0 0 24 24" focusable="false"><path d="M0 0H24V24H0z"/><path fill="#74767B" fill-rule="evenodd" d="M20.0001 6C20.0001 4.34315 18.6569 3 17.0001 3L7.00684 3C5.34998 3 4.00684 4.34315 4.00684 6L4.00684 18C4.00684 19.6569 5.34998 21 7.00684 21L17.0001 21C18.6569 21 20.0001 19.6569 20.0001 18L20.0001 6ZM17.0001 4.3L7.00684 4.3C6.06795 4.3 5.30684 5.06112 5.30684 6L5.30684 18C5.30684 18.9389 6.06795 19.7 7.00684 19.7L17.0001 19.7C17.939 19.7 18.7001 18.9389 18.7001 18L18.7001 6C18.7001 5.06112 17.939 4.3 17.0001 4.3ZM12.9444 14.057C12.7644 14.057 12.5944 13.987 12.4644 13.847C12.2244 13.577 12.2444 13.167 12.5044 12.927L13.3882 11.9913L12.6275 11.9913C11.3296 11.9913 10.2775 13.0434 10.2775 14.3413L10.2775 14.6911C10.2775 15.0501 9.98648 15.3411 9.6275 15.3411C9.26851 15.3411 8.9775 15.0501 8.9775 14.6911L8.9775 14.3413C8.9775 12.3254 10.6117 10.6913 12.6275 10.6913C12.9071 10.6848 12.9598 10.6854 13.0761 10.6866C13.1415 10.6873 13.2271 10.6882 13.3844 10.6882L12.5044 9.78715C12.2344 9.54715 12.2244 9.13715 12.4644 8.86715C12.7044 8.60715 13.1144 8.58715 13.3844 8.82715L15.4238 10.8182C15.7338 11.0982 15.7338 11.5782 15.4238 11.8582L13.3844 13.887C13.2544 14.007 13.1044 14.057 12.9444 14.057Z"/></svg>

<svg xmlns="http://www.w3.org/2000/svg" fill="none" viewBox="0 0 24 24" focusable="false"><path fill="#74767B" fill-rule="evenodd" d="M17 3c1.65 0 3 1.34 3 3v12c0 1.65-1.35 3-3 3H7c-1.65 0-3-1.35-3-3V6c0-1.66 1.35-3 3-3zM7 4.29h10c.93 0 1.7.77 1.7 1.71v12c0 .93-.77 1.7-1.7 1.7H7c-.94 0-1.7-.77-1.7-1.7V6c0-.94.76-1.71 1.7-1.71m5.94 9.76c-.18 0-.35-.07-.48-.21a.66.66 0 0 1 .04-.92l.88-.93h-.76c-1.3 0-2.35 1.05-2.35 2.35v.35c0 .36-.29.65-.65.65s-.65-.29-.65-.65v-.35c0-2.02 1.64-3.65 3.65-3.65.28-.01.33-.01.45-.01h.31l-.88-.9a.65.65 0 0 1-.04-.92c.24-.26.65-.28.92-.04l2.04 1.99c.31.28.31.76 0 1.04l-2.04 2.03c-.13.12-.28.17-.44.17"/></svg>
